X: 3
T:CAL 2
% Nottingham Music Database
S:Mark Knopfler
P:A(acc) A(unacc)
M:9/8
K:G
D2G |"G"B3 -B3 BAG|"G"dB2 -B3 ABd|"G"d3 -d2B "b"dBd|"C"e3 -"Am"e2g edB|\
"G"d3 -d3 "f#"BAG|
"Em"dB2 -B3 BAG|"Am/c"A3 -A3 "A7/c+"A2G|"D7"A3 -A3 B2c|"G"d2b -b3 -"D7/a"bfa|\
"G/b"g3 -g3 -gdg|
"C"e3 -e2d "b"cBd|"Am"ce3d3"D7"cB|"G"d3 -d3 "f#"BAG|"Em"dB2 -B3 BAG|\
"Am"A3 -A3 -"D7"A2G|"G"G3 -G3 :|


